X:54
T:St Anne's Reel
M:C|
R:reel
C:Traditional
K:D
f3g fedB | (3AAA FA DAFA | (3BBB GB EBGB | (3AAA FA DAFA |
fffg fedB | (3AAA FA DAFA | BBed cABc | eddc d2e2 :|
|: f2fg fdef | aggf g2gf | edcB ABce | baag a2ag |
f2fg fdef | aggf g2gf | edcB ABcd | eddc d2de :|

%%newpage

